X:105
%%vocalfont Baskerville10Pro 11
%%pagewidth 7.5in
T:Willow, willow
M:3/4
L:1/8
K:G
%%score 1 2
V:1 clef-treble
V:2 clef-bass octave=-1
V:1
"_mf"B2|[B,GB]3E[A,^DF]2|E2E2BB&x4G2|"_sf"[Gd]2[DG]2[FA]2|G4"_pp"[GB]2|
w:The poor soul sat sigh-ing by a si-ca-more tree. Sing
V:2
z2|E,2G,2B,2|[EG]4[EG]2|B2B2c2&D4D2|[GB]4E2|
V:1
"^Ritard.~~~~~~~~~"[EGc]3EGc&x4E2|B2B2"_mf""^A tempo"BB&[^DF]4D2|"_sf"[=Dd]2[DG]2[CFA]2|[B,GB]2G2[B,GB]2|[EA]3GFE|
w:wil-low, willow, wil-low! With his hand in his bo-som, and his head up-on his
V:2
c2c2c2|B4[B,F]2|[G,B]2B,2D2|G4G,2|C4[CA]2|
V:1
[^DF]4"_f"[=Dd]2|^cBAGFF&E2^C2D2|E2E2[Ae]2&^C4x2|^d^cBA^GF&F2^D2D2|
w:knee; Oh! wil-low, wil-low, wil-low, wil-low, Oh! wil-low, wil-low, wil-low, 
V:2
[B,F]4[B,F]2|[A,A]2[A,A]2[DA]2|[A,A]4[A,^c]2|[B,B]2[B,B]2[B,B]2|
V:1
[E^G]2E2"_pp"[B,E=G]2|[EF]3E [^DF]2&A,4x2|E4"_f"[EG]2|G3G [CFA]2&E2D2x2|[B,GB]2[B,GB]2z2|"_p"d3BcA&G4F2|
w:wil-low, Shall be my gar-land: Sing all a green wil-low, wil-low, wil-low,
V:2
[EB]4E,2|C4[B,A]2|G4G2&E4ED|[CG]2B,2A,2|G,2G,2z2|B4A2|
V:1
B2B2d2&G4"^Cres."G2|d3B(cA)&G4F2|!>(![GB]3[FA] [EG]2|!>)!"_pp"[EF]2E2[^DF]2|E4||
w:wil-low. Ah me! the green* wil-low must be my gar-land.
V:2
G4c2|B4A2|E2E,2G,2|[CA]4[B,A]2|[EG]4||

